media/BLAKE3.svg

<?xml version="1.0" encoding="UTF-8" standalone="no"?>
<!-- Created with Inkscape (http://www.inkscape.org/) -->

<svg
   xmlns:dc="http://purl.org/dc/elements/1.1/"
   xmlns:cc="http://creativecommons.org/ns#"
   xmlns:rdf="http://www.w3.org/1999/02/22-rdf-syntax-ns#"
   xmlns:svg="http://www.w3.org/2000/svg"
   xmlns="http://www.w3.org/2000/svg"
   xmlns:sodipodi="http://sodipodi.sourceforge.net/DTD/sodipodi-0.dtd"
   xmlns:inkscape="http://www.inkscape.org/namespaces/inkscape"
   width="43.063534mm"
   height="7.2707496mm"
   viewBox="0 0 43.063534 7.2707496"
   version="1.1"
   id="svg8"
   sodipodi:docname="BLAKE3.svg"
   inkscape:version="0.92.4 5da689c313, 2019-01-14">
  <defs
     id="defs2" />
  <sodipodi:namedview
     id="base"
     pagecolor="#ffffff"
     bordercolor="#666666"
     borderopacity="1.0"
     inkscape:pageopacity="0.0"
     inkscape:pageshadow="2"
     inkscape:zoom="4"
     inkscape:cx="72.73328"
     inkscape:cy="-34.835127"
     inkscape:document-units="mm"
     inkscape:current-layer="layer1"
     showgrid="false"
     inkscape:window-width="1920"
     inkscape:window-height="1016"
     inkscape:window-x="0"
     inkscape:window-y="27"
     inkscape:window-maximized="1" />
  <metadata
     id="metadata5">
    <rdf:RDF>
      <cc:Work
         rdf:about="">
        <dc:format>image/svg+xml</dc:format>
        <dc:type
           rdf:resource="http://purl.org/dc/dcmitype/StillImage" />
      </cc:Work>
    </rdf:RDF>
  </metadata>
  <g
     inkscape:label="Layer 1"
     inkscape:groupmode="layer"
     id="layer1"
     transform="translate(-24.441005,-113.39818)">
    <g
       aria-label="BLAKE3"
       style="font-style:normal;font-weight:normal;font-size:10.58333302px;line-height:1.25;font-family:sans-serif;letter-spacing:0px;word-spacing:0px;fill:#000000;fill-opacity:1;stroke:none;stroke-width:0.26458332"
       id="text868">
      <path
         d="m 28.176921,113.52518 q 0.635,0 1.0795,0.14817 0.455084,0.13758 0.740834,0.40216 0.296333,0.254 0.433916,0.61384 0.137584,0.35983 0.137584,0.79375 0,0.62441 -0.264584,1.00541 -0.254,0.381 -0.762,0.58209 0.508,0.21166 0.783167,0.61383 0.275167,0.39158 0.275167,1.016 0,0.43392 -0.137584,0.79375 -0.137583,0.35983 -0.433916,0.62442 -0.28575,0.254 -0.740834,0.40216 -0.4445,0.14817 -1.0795,0.14817 h -3.174999 q -0.592667,0 -0.592667,-0.58208 v -5.97959 q 0,-0.58208 0.592667,-0.58208 z m -2.508249,5.78908 q 0,0.11642 0.137583,0.11642 h 2.434166 q 0.5715,0 0.836084,-0.24342 0.264583,-0.24341 0.264583,-0.68791 0,-0.92075 -1.100667,-0.92075 h -2.571749 z m 0,-2.77283 h 2.539999 q 1.100667,0 1.100667,-0.85725 0,-0.42333 -0.264583,-0.67733 -0.254,-0.254 -0.8255,-0.254 h -2.413 q -0.137583,0 -0.137583,0.127 z"
         style="font-style:normal;font-variant:normal;font-weight:normal;font-stretch:normal;font-family:Nasalization;-inkscape-font-specification:Nasalization;stroke-width:0.26458332"
         id="path814" />
      <path
         d="m 33.22517,113.52518 v 4.66725 q 0,0.254 0.0635,0.48683 0.07408,0.22225 0.243417,0.39159 0.169333,0.15875 0.4445,0.254 0.28575,0.0953 0.709083,0.0953 h 2.772833 v 1.24883 h -2.846916 q -0.709084,0 -1.217084,-0.17992 -0.497416,-0.1905 -0.814916,-0.51858 -0.3175,-0.32808 -0.465667,-0.77258 -0.137583,-0.45509 -0.137583,-0.99484 v -4.67783 z"
         style="font-style:normal;font-variant:normal;font-weight:normal;font-stretch:normal;font-family:Nasalization;-inkscape-font-specification:Nasalization;stroke-width:0.26458332"
         id="path816" />
      <path
         d="M 39.342334,120.66893 H 37.9665 l 2.50825,-6.35 q 0.201084,-0.508 0.560917,-0.70908 0.370417,-0.21167 0.941917,-0.21167 0.560916,0 0.92075,0.21167 0.370416,0.20108 0.560916,0.70908 l 2.413,6.35 h -1.386416 l -2.169584,-5.74675 q -0.09525,-0.24342 -0.34925,-0.24342 -0.254,0 -0.359833,0.24342 z"
         style="font-style:normal;font-variant:normal;font-weight:normal;font-stretch:normal;font-family:Nasalization;-inkscape-font-specification:Nasalization;stroke-width:0.26458332"
         id="path818" />
      <path
         d="m 48.179401,113.52518 v 3.02683 h 0.687917 q 0.455083,0 0.740833,-0.0212 0.296333,-0.0318 0.486833,-0.127 0.1905,-0.0953 0.3175,-0.26459 0.137584,-0.17991 0.28575,-0.47625 l 1.090084,-2.13783 h 1.344083 l -1.121833,2.2225 q -0.243417,0.47625 -0.518584,0.79375 -0.275166,0.3175 -0.719666,0.508 0.254,0.0635 0.4445,0.17992 0.1905,0.10583 0.34925,0.27516 0.169333,0.15875 0.3175,0.39159 0.148166,0.22225 0.306916,0.52916 l 1.153584,2.24367 h -1.397 l -1.090084,-2.11667 q -0.148166,-0.28575 -0.28575,-0.45508 -0.137583,-0.16933 -0.34925,-0.26458 -0.211666,-0.0952 -0.529166,-0.11642 -0.3175,-0.0317 -0.8255,-0.0317 h -0.687917 v 2.9845 h -1.248833 v -7.14375 z"
         style="font-style:normal;font-variant:normal;font-weight:normal;font-stretch:normal;font-family:Nasalization;-inkscape-font-specification:Nasalization;stroke-width:0.26458332"
         id="path820" />
      <path
         d="m 60.127965,113.52518 v 1.24883 h -3.577166 q -0.5715,0 -0.8255,0.24342 -0.254,0.24342 -0.254,0.65617 0,0.84666 1.090083,0.84666 h 3.513667 v 1.13242 h -3.545417 q -1.090083,0 -1.090083,0.86783 0,0.42334 0.264583,0.66675 0.264583,0.23284 0.814917,0.23284 h 3.6195 v 1.24883 h -3.6195 q -0.635,0 -1.090083,-0.14817 -0.4445,-0.14816 -0.740834,-0.40216 -0.28575,-0.26459 -0.423333,-0.62442 -0.127,-0.35983 -0.127,-0.77258 0,-0.61384 0.264583,-1.016 0.264584,-0.41275 0.762,-0.62442 -1.005416,-0.41275 -1.005416,-1.60867 0,-0.42333 0.137583,-0.78316 0.137583,-0.35984 0.423333,-0.61384 0.296334,-0.26458 0.740834,-0.40216 0.455083,-0.14817 1.090083,-0.14817 z"
         style="font-style:normal;font-variant:normal;font-weight:normal;font-stretch:normal;font-family:Nasalization;-inkscape-font-specification:Nasalization;stroke-width:0.26458332"
         id="path822" />
      <path
         d="m 65.091539,113.52518 q 0.635,0 1.0795,0.14817 0.455083,0.13758 0.740833,0.40216 0.296333,0.254 0.433917,0.60325 0.137583,0.34925 0.137583,0.762 0,0.635 -0.264583,1.03717 -0.254,0.39158 -0.751417,0.60325 0.508,0.21167 0.772583,0.62442 0.264584,0.40216 0.264584,1.04775 0,0.40216 -0.137584,0.75141 -0.137583,0.34925 -0.423333,0.61384 -0.28575,0.254 -0.740833,0.40216 -0.4445,0.14817 -1.0795,0.14817 h -3.608917 v -1.24883 h 3.608917 q 0.550333,0 0.814916,-0.23284 0.264584,-0.24341 0.264584,-0.67733 0,-0.85725 -1.090084,-0.85725 h -2.201333 v -1.13242 h 2.169583 q 0.550334,0 0.814917,-0.20108 0.275167,-0.21167 0.275167,-0.65617 0,-0.40216 -0.254,-0.64558 -0.254,-0.24342 -0.8255,-0.24342 h -3.566583 v -1.24883 z"
         style="font-style:normal;font-variant:normal;font-weight:normal;font-stretch:normal;font-family:Nasalization;-inkscape-font-specification:Nasalization;stroke-width:0.26458332"
         id="path824" />
    </g>
  </g>
</svg>

<?xml version="1.0" standalone="no"?>
<!DOCTYPE svg PUBLIC "-//W3C//DTD SVG 1.0//EN" "http://www.w3.org/TR/2001/REC-SVG-20010904/DTD/svg10.dtd">
<svg xmlns="http://www.w3.org/2000/svg" xmlns:xlink="http://www.w3.org/1999/xlink" id="body_1" width="1000" height="166">

<g transform="matrix(22.831211 0 0 22.831211 8.403715 -0)">
	<g transform="matrix(1 0 0 1 -24.441006 -113.39818)">
		<g>
            <path d="M28.176922 113.52518C 28.600256 113.525185 28.96009 113.57457 29.256422 113.67335C 29.55981 113.765076 29.806755 113.899124 29.997255 114.07551C 30.194813 114.24484 30.33945 114.449455 30.431171 114.68935C 30.522896 114.92924 30.568756 115.19382 30.568756 115.48309C 30.568756 115.89937 30.480562 116.23451 30.304173 116.4885C 30.13484 116.74251 29.88084 116.93654 29.542173 117.070595C 29.88084 117.2117 30.141895 117.41631 30.32534 117.684425C 30.508785 117.94548 30.60051 118.28415 30.600508 118.700424C 30.60051 118.98971 30.554647 119.25429 30.462923 119.49417C 30.371202 119.73406 30.226562 119.9422 30.029007 120.11859C 29.838509 120.28793 29.591564 120.42198 29.288174 120.52075C 28.99184 120.61954 28.632008 120.66893 28.208673 120.66892L28.208673 120.66892L25.033674 120.66892C 24.638565 120.66893 24.44101 120.4749 24.441008 120.086845L24.441008 120.086845L24.441008 114.107254C 24.44101 113.71921 24.638565 113.525185 25.033674 113.52518L25.033674 113.52518L28.176922 113.52518zM25.668673 119.314255C 25.668674 119.39188 25.714535 119.43068 25.806255 119.43067L25.806255 119.43067L28.240421 119.43067C 28.621422 119.43068 28.900118 119.34953 29.076506 119.18725C 29.252895 119.02498 29.34109 118.79568 29.34109 118.49934C 29.34109 117.885506 28.974201 117.57859 28.240421 117.57858L28.240421 117.57858L25.668673 117.57858zM25.668673 116.54143L28.208672 116.54143C 28.94245 116.541435 29.309338 116.255684 29.309338 115.68418C 29.309338 115.40196 29.221144 115.176186 29.044754 115.00685C 28.875422 114.837524 28.600254 114.75286 28.219254 114.75285L28.219254 114.75285L25.806253 114.75285C 25.714533 114.75286 25.66867 114.7952 25.66867 114.87985z" stroke="none" fill="#000000" fill-rule="nonzero" />
            <path d="M33.22517 113.52518L33.22517 118.19243C 33.22517 118.36176 33.246338 118.52404 33.28867 118.67926C 33.33806 118.82743 33.419197 118.95796 33.532085 119.07085C 33.644974 119.17669 33.793144 119.26135 33.976585 119.324844C 34.167088 119.38838 34.40345 119.42015 34.68567 119.42014L34.68567 119.42014L37.458504 119.42014L37.458504 120.668976L34.611588 120.668976C 34.138866 120.668976 33.73317 120.60901 33.394505 120.48906C 33.062897 120.36206 32.791256 120.18921 32.57959 119.97048C 32.367924 119.75177 32.2127 119.49424 32.113922 119.1979C 32.0222 118.89451 31.976341 118.5629 31.97634 118.20306L31.97634 118.20306L31.97634 113.52522L33.22517 113.52518z" stroke="none" fill="#000000" fill-rule="nonzero" />
            <path d="M39.342335 120.66893L37.9665 120.66893L40.47475 114.31893C 40.608807 113.98027 40.79578 113.743904 41.035667 113.60985C 41.282616 113.468735 41.59659 113.39818 41.977585 113.39818C 42.351532 113.39818 42.658447 113.468735 42.898335 113.60985C 43.14528 113.743904 43.332253 113.98027 43.45925 114.31893L43.45925 114.31893L45.872253 120.66893L44.485836 120.66893L42.316254 114.92218C 42.252754 114.7599 42.136337 114.67876 41.967003 114.67876C 41.79767 114.67876 41.677727 114.7599 41.60717 114.92218L41.60717 114.92218L39.342335 120.66893z" stroke="none" fill="#000000" fill-rule="nonzero" />
            <path d="M48.1794 113.52518L48.1794 116.55201L48.867317 116.55201C 49.170708 116.55201 49.41765 116.544945 49.60815 116.53081C 49.80571 116.50961 49.967987 116.46728 50.094982 116.40381C 50.221985 116.34028 50.327816 116.25208 50.412483 116.13922C 50.504208 116.01929 50.599457 115.860535 50.698235 115.66297L50.698235 115.66297L51.78832 113.52514L53.1324 113.52514L52.010567 115.74764C 51.848293 116.06515 51.67543 116.32973 51.49198 116.54139C 51.30854 116.75306 51.068653 116.92239 50.772316 117.04939C 50.941654 117.09173 51.08982 117.1517 51.216816 117.22931C 51.34382 117.299866 51.460236 117.39159 51.566067 117.50447C 51.67896 117.61031 51.78479 117.740845 51.883568 117.89606C 51.982346 118.044235 52.084652 118.22062 52.190483 118.42522L52.190483 118.42522L53.344067 120.668884L51.947067 120.668884L50.856983 118.552216C 50.758205 118.361725 50.662956 118.21003 50.57123 118.09714C 50.47951 117.98426 50.363094 117.896065 50.22198 117.83256C 50.08087 117.7691 49.90448 117.73029 49.692814 117.71614C 49.481148 117.695015 49.205982 117.68445 48.867313 117.68444L48.867313 117.68444L48.179398 117.68444L48.179398 120.66894L46.930565 120.66894L46.930565 113.525185L48.1794 113.52518z" stroke="none" fill="#000000" fill-rule="nonzero" />
            <path d="M60.127964 113.52518L60.127964 114.77401L56.550797 114.77401C 56.1698 114.77401 55.894634 114.85515 55.725296 115.01743C 55.555965 115.17972 55.4713 115.398445 55.471294 115.67361C 55.4713 116.238045 55.83466 116.52026 56.56138 116.52026L56.56138 116.52026L60.075047 116.52026L60.075047 117.65269L56.52963 117.65269C 55.80291 117.652695 55.439545 117.94197 55.439545 118.520515C 55.439545 118.80275 55.52774 119.024994 55.70413 119.18726C 55.88052 119.34249 56.15216 119.420105 56.519047 119.420105L56.519047 119.420105L60.138546 119.420105L60.138546 120.66894L56.519047 120.66894C 56.09572 120.668945 55.732357 120.61955 55.428963 120.52077C 55.132633 120.422 54.88569 120.28794 54.68813 120.11861C 54.49763 119.942215 54.35652 119.73408 54.264797 119.49419C 54.18013 119.2543 54.1378 118.99677 54.1378 118.7216C 54.1378 118.31238 54.225994 117.97371 54.40238 117.705605C 54.578773 117.430435 54.83277 117.2223 55.164383 117.081184C 54.49411 116.80602 54.15897 116.2698 54.158966 115.47251C 54.15897 115.19029 54.20483 114.929245 54.29655 114.689354C 54.388275 114.44946 54.52939 114.24486 54.719883 114.075516C 54.917442 113.89914 55.164383 113.76508 55.460716 113.673355C 55.764107 113.57458 56.127464 113.525185 56.5508 113.525185L56.5508 113.525185L60.127964 113.52518z" stroke="none" fill="#000000" fill-rule="nonzero" />
            <path d="M65.09154 113.52518C 65.51488 113.525185 65.87471 113.57457 66.171036 113.67335C 66.47443 113.765076 66.721375 113.899124 66.911865 114.07551C 67.10942 114.24484 67.25406 114.44592 67.34578 114.67876C 67.4375 114.91159 67.48336 115.165596 67.48336 115.44076C 67.48336 115.8641 67.39517 116.20982 67.21878 116.47793C 67.04945 116.73898 66.79898 116.94007 66.46736 117.08118C 66.80603 117.2223 67.06356 117.430435 67.239944 117.7056C 67.416336 117.97371 67.50453 118.32296 67.50453 118.75335C 67.50453 119.02146 67.45867 119.271935 67.36695 119.50476C 67.27523 119.7376 67.134125 119.942215 66.94362 120.1186C 66.75312 120.28793 66.50618 120.42198 66.20279 120.52076C 65.906456 120.61954 65.54662 120.66893 65.12329 120.66893L65.12329 120.66893L61.514374 120.66893L61.514374 119.4201L65.12329 119.4201C 65.49018 119.420105 65.761826 119.34249 65.93821 119.187256C 66.11461 119.02499 66.202805 118.79921 66.2028 118.509926C 66.202805 117.93843 65.83944 117.65268 65.11272 117.65268L65.11272 117.65268L62.911385 117.65268L62.911385 116.520256L65.08097 116.520256C 65.44786 116.52026 65.7195 116.45323 65.89589 116.319176C 66.07934 116.17807 66.17106 115.95934 66.17106 115.663C 66.17106 115.3949 66.086395 115.1797 65.91706 115.017426C 65.74773 114.85515 65.472565 114.77401 65.09156 114.774L65.09156 114.774L61.52498 114.774L61.52498 113.52517L65.09154 113.52518z" stroke="none" fill="#000000" fill-rule="nonzero" />
		</g>
	</g>
</g>
</svg>
